X:25
T:The Star of Rakudo
M:2/2
L:1/8
C:Solomon Foster
R:Reel
K:G major
zA|:BAGB cBAc|decd BAGE|DEGA BABd|~e3f edBA|
BAGB cBAc|decd BAGE|DEGA BABd|egdB G3A:|
|:B~g3 c~a3|bagb aged|DEGA BABd|~e3f edBA|
B~g3 c~a3|bagb aged|DEGA BABd|egdB G3A:|
